X: 27884
T: Mountain Dew
R: reel
M: 4/4
K: Edorian
~B2EB GBEB|~B2EB ADFA|~B2EB GBEg|gedB ADdc|
~B2EB GBEB|BEGB ADFA|~B2EB GBEg|gedB ADFA||
~B2eg fded|~B2eg fddA|~B2eg fded|ABAG FA~A2|
~B2eg fded|~B2eg fddc|dfaf gfed|~B3A FE~E2|

